build/service/SizeChangerHorizontalOutline.svg

<svg xmlns="http://www.w3.org/2000/svg" fill="none" viewBox="0 0 20 20" focusable="false"><path d="M0 0H20V20H0z"/><path fill="#74767B" fill-rule="evenodd" d="M8.15 3.34998C8.50899 3.34998 8.8 3.64099 8.8 3.99998L8.8 16C8.8 16.359 8.50899 16.65 8.15 16.65C7.79101 16.65 7.5 16.359 7.5 16L7.5 3.99998C7.5 3.64099 7.79101 3.34998 8.15 3.34998ZM11.85 3.34998C12.2089 3.34998 12.5 3.64099 12.5 3.99998L12.5 16C12.5 16.359 12.2089 16.65 11.85 16.65C11.491 16.65 11.2 16.359 11.2 16L11.2 3.99998C11.2 3.64099 11.491 3.34998 11.85 3.34998Z"/></svg>

<svg xmlns="http://www.w3.org/2000/svg" fill="none" viewBox="0 0 20 20" focusable="false"><path fill="#74767B" fill-rule="evenodd" d="M8.14 3.34c.36 0 .65.3.65.66v12c0 .35-.29.65-.65.65-.35 0-.64-.3-.64-.65V4c0-.36.29-.66.64-.66m3.71 0c.35 0 .65.3.65.66v12c0 .35-.3.65-.65.65-.36 0-.65-.3-.65-.65V4c0-.36.29-.66.65-.66"/></svg>
